X: 6124
T: Captain Keller's
R: reel
M: 4/4
K: Gdorian
A|:B2d/c/B fdbd|B/B/B d/c/B AFcA|B2 d/c/B fdbd|1 cAFA BGG2:|2 cAFA BGG2||
DGBG dGBG|DGBG AFcA|DGBG dGBG|cAFA BGG2|
DGBG dGBG|DGBG AFcA|Bcd=e fefd|eafa bgg2||

